X: 799
T: Wallingford House
P: Longways for as many as will
%R: jig
B: "The Dancing-Master: Containing Directions and Tunes for Dancing" printed by W. Pearson for John Walsh, London ca. 1709
S: 7: DMDfD http://digital.nls.uk/special-collections-of-printed-music/pageturner.cfm?id=89751228 p.78
Z: 2013 John Chambers <jc:trillian.mit.edu>
M: 6/4
L: 1/4
K: Gm
% - - - - - - - - - - - - - - - - - - - - - - - - -
g |\
g>fe d>cB | cd/c/B A2G |\
B>cd ec2 | d2g ^f2g |\
a>gf =e2d | d3- d2 ][ d |
de^f gab | c'af b2d |\
efg cAF | B3 Bcd |\
e>dc dg^f | g3 a3 |\
b>ag a^fd | g3- g2 |]
% - - - - - - - - - - - - - - - - - - - - - - - - -
%%begintext align
%% The first man goes round his own wo. the 2. wo. follows him, then fall into their own places, the 1. wo.
%% and 2. man do as much :| The 1. man and 2. wo. cross over and turn S. then take all hands, go a quarter
%% round and turn all S. then the other cu. cross over and turn S. then take all hands and go round till
%% you come to your own places, and then cast off to the second place. Do this to the last :|
%%endtext
%%sep 1 1 300
%%begintext align
%% The 1. cu. lead up, the 2. cu. lead down, back again :| That again. The two men go between their
%% own we. and go round them into their own places, then take all hands, go half round, and turn all S.
%% the we. do as much round the men, then take hands and go half round, then the 1. cu. cast off.
%% Do this to the last :|
%% [DMDfD]
%%endtext
%%sep 1 8 500

%%sep 1 1 500
%%sep 1 1 500
